qtwebengine/src/3rdparty/chromium/components/neterror/resources/images/generic-globe.svg

<?xml version="1.0" encoding="UTF-8"?>
<!DOCTYPE svg PUBLIC "-//W3C//DTD SVG 1.1//EN" "http://www.w3.org/Graphics/SVG/1.1/DTD/svg11.dtd">
<svg width="24px" height="24px" viewBox="0 0 24 24" version="1.1" xmlns="http://www.w3.org/2000/svg" xmlns:xlink="http://www.w3.org/1999/xlink">
    <path d="M12,2 C17.52,2 22,6.48 22,12 C22,17.52 17.52,22 12,22 C6.48,22 2,17.52 2,12 C2,6.48 6.48,2 12,2 Z M4,12 L8.39965738,12 C11.8069564,12.0216703 13.3215127,13.7306881 12.9433263,17.1270533 L9.48779297,17.1270533 L9.48779297,19.5969677 C10.2779812,19.8584533 11.1225862,20 12,20 C16.4154305,20 20,16.4154305 20,12 C20,11.8369689 19.9951131,11.6750705 19.985478,11.5144435 C19.3284927,12.5048145 18.3333333,13 17,13 C14.8625709,13 13.7938564,12.0835751 13.7938564,10.2507252 L10.0456962,10.2507252 C9.77189381,7.52243177 10.7285175,6.15828507 12.9155672,6.15828507 C12.9155672,5.18308692 13.2430063,4.56146185 13.7272555,4.1872682 C13.170934,4.0646458 12.592959,4 12,4 C7.5845695,4 4,7.5845695 4,12 Z" id="Combined-Shape" fill="#3C4043" fill-rule="nonzero"></path>
</svg>

<svg width="24" height="24" viewBox="0 0 24 24" xmlns="http://www.w3.org/2000/svg"><path d="M12 2c5.52 0 10 4.48 10 10s-4.48 10-10 10S2 17.52 2 12 6.48 2 12 2zM4 12h4.4c3.407.022 4.922 1.73 4.543 5.127H9.488v2.47a8.004 8.004 0 0 0 10.498-8.083C19.327 12.504 18.332 13 17 13c-2.137 0-3.206-.916-3.206-2.75h-3.748c-.274-2.728.683-4.092 2.87-4.092 0-.975.327-1.597.811-1.97A8.004 8.004 0 0 0 4 12z" fill="#3C4043"/></svg>
